X:321
T:Yellow Kid (polka), The
B:CRE2.110 (GabhairÃÂÃÂÃÂÃÂ­n BuÃÂÃÂÃÂÃÂ­)
F:file ID: cre.2/321yell_k
N:"Kid" here is a little goat, not a child!
Q:120
L:1/8
M:2/4
R:polka
K:G
GG/F/ GA|B2 AG|BA/B/ AG|GA AB|
"5"DE GA|B2 AB/A/|GE ED|GE EG|
"9"DE GA|B2 GA|BA/B/ AG|BA/B/ AB|
"13"DE GA|B2 AB/A/|GE ED|GE ED||
"17"|:dd ed|B2 GA|BA AG|BA AA|
dd ed|B2 AB/A/|GE ED|1GE ED:|2 G4-|G4|]

%%%

